X: 21293
M: 2/4
L: 1/16
K: D
V: 1 name="6"
[|{edc}\
d4 {edc}d4 | d4 cAFA | d2de f2df | edcB AABc |\
~d6 e2 | d3d defg | abag fage | d6 H|]
|: dB |\


